modules/stroke-7/icons/menu.svg

<?xml version="1.0" encoding="utf-8"?>
<!-- Generated by IcoMoon.io -->
<!DOCTYPE svg PUBLIC "-//W3C//DTD SVG 1.1//EN" "http://www.w3.org/Graphics/SVG/1.1/DTD/svg11.dtd">
<svg version="1.1" xmlns="http://www.w3.org/2000/svg" xmlns:xlink="http://www.w3.org/1999/xlink" width="32" height="32" viewBox="0 0 32 32">
<g id="icomoon-ignore">
</g>
<path d="M3.205 6.937v4.265h25.59v-4.265h-25.59zM27.729 10.136h-23.457v-2.133h23.457v2.133z" fill="#000000"></path>
<path d="M3.205 18.133h25.59v-4.265h-25.59v4.265zM4.271 14.934h23.457v2.133h-23.457v-2.133z" fill="#000000"></path>
<path d="M3.205 25.063h25.59v-4.265h-25.59v4.265zM4.271 21.864h23.457v2.133h-23.457v-2.133z" fill="#000000"></path>
</svg>

<svg xmlns="http://www.w3.org/2000/svg" width="32" height="32" viewBox="0 0 32 32"><path d="M3.205 6.937v4.265h25.59V6.937H3.205zm24.524 3.199H4.272V8.003h23.457v2.133zM3.205 18.133h25.59v-4.265H3.205v4.265zm1.066-3.199h23.457v2.133H4.271v-2.133zM3.205 25.063h25.59v-4.265H3.205v4.265zm1.066-3.199h23.457v2.133H4.271v-2.133z"/></svg>
